public/assets/images/brand/05.svg

<svg width="82" height="26" viewBox="0 0 82 26" fill="none" xmlns="http://www.w3.org/2000/svg">
<g clip-path="url(#clip0_21_26)">
<path fill-rule="evenodd" clip-rule="evenodd" d="M50.8716 20.0536C46.1064 23.607 39.1996 25.5029 33.253 25.5029C24.9148 25.5029 17.4084 22.3828 11.7294 17.1936C11.2833 16.7855 11.683 16.2294 12.2185 16.5472C18.3471 20.1547 25.925 22.325 33.7527 22.325C39.0318 22.325 44.8393 21.22 50.1791 18.9269C50.9858 18.5803 51.6604 19.4614 50.8716 20.0536Z" fill="#050D20"/>
<path fill-rule="evenodd" clip-rule="evenodd" d="M52.8526 17.7565C52.2458 16.9693 48.8263 17.3846 47.2915 17.5688C46.8239 17.6265 46.7525 17.2149 47.1737 16.9188C49.8971 14.9796 54.366 15.5393 54.8872 16.1893C55.4083 16.8429 54.7515 21.3749 52.1923 23.538C51.7996 23.8702 51.4248 23.6933 51.5997 23.2527C52.1744 21.801 53.463 18.5474 52.8526 17.7565Z" fill="#050D20"/>
<path fill-rule="evenodd" clip-rule="evenodd" d="M47.3986 3.22888V1.34386C47.3986 1.05858 47.6127 0.867188 47.8697 0.867188H56.2114C56.4791 0.867188 56.6933 1.06219 56.6933 1.34386V2.95805C56.6897 3.22888 56.4649 3.58277 56.0651 4.1425L51.7425 10.3862C53.3488 10.3465 55.0442 10.5884 56.5006 11.419C56.8289 11.6068 56.9182 11.8812 56.9432 12.152V14.1635C56.9432 14.4379 56.6433 14.7593 56.3292 14.5932C53.7628 13.2318 50.354 13.0837 47.5163 14.6076C47.2272 14.7665 46.9238 14.4487 46.9238 14.1743V12.264C46.9238 11.957 46.9274 11.4334 47.2308 10.9676L52.2387 3.70195H47.8804C47.6127 3.70195 47.3986 3.51055 47.3986 3.22888Z" fill="#050D20"/>
<path fill-rule="evenodd" clip-rule="evenodd" d="M16.9687 14.9902H14.4309C14.1881 14.9721 13.9954 14.7879 13.9775 14.5532V1.37612C13.9775 1.11251 14.1953 0.903064 14.4665 0.903064H16.8331C17.0794 0.913891 17.2757 1.10528 17.2935 1.34362V3.06614H17.3399C17.9574 1.4014 19.1175 0.625 20.6809 0.625C22.2693 0.625 23.2616 1.4014 23.9754 3.06614C24.5894 1.4014 25.985 0.625 27.4806 0.625C28.5443 0.625 29.7079 1.06917 30.4182 2.06585C31.2213 3.17447 31.0572 4.78505 31.0572 6.19701L31.0536 14.5135C31.0536 14.7771 30.8359 14.9902 30.5646 14.9902H28.0303C27.7769 14.9721 27.5734 14.7663 27.5734 14.5135V7.52953C27.5734 6.97341 27.6234 5.58672 27.502 5.05949C27.3128 4.17476 26.7453 3.9256 26.01 3.9256C25.3961 3.9256 24.7536 4.34088 24.493 5.00533C24.2324 5.66979 24.2574 6.78202 24.2574 7.52953V14.5135C24.2574 14.7771 24.0397 14.9902 23.7684 14.9902H21.2341C20.9771 14.9721 20.7773 14.7663 20.7773 14.5135L20.7737 7.52953C20.7737 6.05979 21.0128 3.89671 19.2103 3.89671C17.3863 3.89671 17.4577 6.00562 17.4577 7.52953V14.5135C17.4577 14.7771 17.24 14.9902 16.9687 14.9902Z" fill="#050D20"/>
<path fill-rule="evenodd" clip-rule="evenodd" d="M63.8741 0.625C67.6399 0.625 69.678 3.8967 69.678 8.05675C69.678 12.076 67.4257 15.2646 63.8741 15.2646C60.1762 15.2646 58.1631 11.9929 58.1631 7.91592C58.1631 3.81365 60.2012 0.625 63.8741 0.625ZM63.8956 3.31531C62.0252 3.31531 61.9074 5.89367 61.9074 7.50063C61.9074 9.1112 61.8824 12.549 63.8741 12.549C65.8409 12.549 65.9337 9.77566 65.9337 8.08564C65.9337 6.97341 65.8873 5.64451 65.5553 4.59005C65.2698 3.67282 64.7022 3.31531 63.8956 3.31531Z" fill="#050D20"/>
<path fill-rule="evenodd" clip-rule="evenodd" d="M74.5618 14.9902H72.0347C71.7812 14.9721 71.5778 14.7663 71.5778 14.5135L71.5742 1.33278C71.5956 1.09084 71.8062 0.903064 72.0632 0.903064H74.4155C74.6368 0.913891 74.8188 1.06556 74.8688 1.2714V3.28642H74.9152C75.6255 1.48446 76.6214 0.625 78.3739 0.625C79.5126 0.625 80.6227 1.04028 81.3365 2.1778C82.0005 3.23225 82.0005 5.00533 82.0005 6.28007V14.5749C81.9719 14.806 81.7613 14.9902 81.5115 14.9902H78.9665C78.7344 14.9721 78.5417 14.7988 78.5167 14.5749V7.41758C78.5167 5.97673 78.6809 3.86781 76.9283 3.86781C76.3108 3.86781 75.7433 4.28671 75.4613 4.92227C75.1044 5.72756 75.058 6.52924 75.058 7.41758V14.5135C75.0544 14.7771 74.8331 14.9902 74.5618 14.9902Z" fill="#050D20"/>
<path fill-rule="evenodd" clip-rule="evenodd" d="M40.7484 8.69732C40.7484 9.69761 40.7734 10.5318 40.2737 11.4201C39.8703 12.1424 39.2279 12.5865 38.5175 12.5865C37.5431 12.5865 36.972 11.8354 36.972 10.7268C36.972 8.53843 38.9102 8.1412 40.7484 8.1412V8.69732ZM43.3077 14.9554C43.1399 15.1071 42.8972 15.1179 42.708 15.0168C41.8656 14.309 41.7122 13.9804 41.2517 13.3051C39.8596 14.7424 38.8709 15.1721 37.0684 15.1721C34.9303 15.1721 33.2705 13.8396 33.2705 11.171C33.2705 9.08732 34.3842 7.66814 35.9761 6.9748C37.3539 6.3609 39.2778 6.25256 40.7484 6.08284V5.75062C40.7484 5.14033 40.7948 4.4181 40.4379 3.89088C40.1309 3.41782 39.5384 3.22281 39.0137 3.22281C38.0464 3.22281 37.1861 3.72476 36.9756 4.76477C36.9327 4.99589 36.765 5.22339 36.5329 5.23422L34.0736 4.96699C33.8666 4.92005 33.6346 4.75033 33.6953 4.42894C34.2592 1.41002 36.9577 0.5 39.3706 0.5C40.6056 0.5 42.219 0.832226 43.1935 1.77835C44.4285 2.94475 44.3107 4.50116 44.3107 6.19479V10.1959C44.3107 11.3985 44.8033 11.9257 45.2673 12.5757C45.4279 12.8068 45.4636 13.0849 45.2566 13.2582C44.739 13.6952 43.8181 14.5077 43.3112 14.9627L43.3077 14.9554Z" fill="#050D20"/>
<path fill-rule="evenodd" clip-rule="evenodd" d="M7.47791 8.69732C7.47791 9.69761 7.50289 10.5318 7.00318 11.4201C6.59983 12.1424 5.96091 12.5865 5.24703 12.5865C4.27258 12.5865 3.70504 11.8354 3.70504 10.7268C3.70504 8.53843 5.64323 8.1412 7.47791 8.1412V8.69732ZM10.0372 14.9554C9.86941 15.1071 9.62669 15.1179 9.43751 15.0168C8.59513 14.309 8.44522 13.9804 7.98119 13.3051C6.58912 14.7424 5.60397 15.1721 3.79785 15.1721C1.66334 15.1721 0 13.8396 0 11.171C0 9.08732 1.11722 7.66814 2.70561 6.9748C4.0834 6.3609 6.00731 6.25256 7.47791 6.08284V5.75062C7.47791 5.14033 7.52431 4.4181 7.17094 3.89088C6.8604 3.41782 6.26788 3.22281 5.74674 3.22281C4.77944 3.22281 3.91564 3.72476 3.70504 4.76477C3.66221 4.99589 3.49445 5.22339 3.26601 5.23422L0.803117 4.96699C0.59609 4.92005 0.367648 4.75033 0.424758 4.42894C0.992295 1.41002 3.6872 0.5 6.10012 0.5C7.33513 0.5 8.9485 0.832226 9.92295 1.77835C11.158 2.94475 11.0402 4.50116 11.0402 6.19479V10.1959C11.0402 11.3985 11.5328 11.9257 11.9968 12.5757C12.161 12.8068 12.1967 13.0849 11.9896 13.2582C11.4721 13.6952 10.5512 14.5077 10.0443 14.9627L10.0372 14.9554Z" fill="#050D20"/>
</g>
<defs>
<clipPath id="clip0_21_26">
<rect width="82" height="25" fill="white" transform="translate(0 0.5)"/>
</clipPath>
</defs>
</svg>

<svg xmlns="http://www.w3.org/2000/svg" width="82" height="26" fill="none" viewBox="0 0 82 26"><g fill="#050d20" fill-rule="evenodd" clip-path="url(#a)" clip-rule="evenodd"><path d="M50.872 20.054c-4.766 3.553-11.672 5.449-17.619 5.449-8.338 0-15.845-3.12-21.524-8.31-.446-.408-.046-.964.49-.646 6.128 3.608 13.706 5.778 21.534 5.778 5.279 0 11.086-1.105 16.426-3.398.807-.347 1.481.534.693 1.127"/><path d="M52.853 17.757c-.607-.788-4.027-.372-5.562-.188-.467.058-.538-.354-.117-.65 2.723-1.94 7.192-1.38 7.713-.73.521.654-.136 5.186-2.695 7.349-.392.332-.767.155-.592-.285.574-1.452 1.863-4.706 1.253-5.497M47.399 3.229V1.344c0-.285.214-.477.47-.477h8.342c.268 0 .482.195.482.477v1.614c-.003.27-.228.625-.628 1.185l-4.322 6.243c1.606-.04 3.301.202 4.758 1.033.328.188.417.462.442.733v2.012c0 .274-.3.595-.614.43-2.566-1.362-5.975-1.51-8.813.014-.289.159-.592-.16-.592-.434v-1.91c0-.307.003-.83.307-1.296l5.008-7.266H47.88a.464.464 0 0 1-.481-.473M16.969 14.99H14.43a.48.48 0 0 1-.453-.437V1.376c0-.263.217-.473.489-.473h2.366a.48.48 0 0 1 .46.44v1.723h.047c.617-1.665 1.777-2.441 3.34-2.441 1.59 0 2.582.776 3.295 2.441.614-1.665 2.01-2.441 3.506-2.441 1.063 0 2.227.444 2.937 1.44.803 1.11.64 2.72.64 4.132l-.004 8.317a.48.48 0 0 1-.49.476H28.03a.486.486 0 0 1-.457-.476V7.53c0-.557.05-1.943-.071-2.47-.19-.885-.757-1.134-1.492-1.134-.614 0-1.256.415-1.517 1.08-.26.664-.236 1.776-.236 2.524v6.984a.48.48 0 0 1-.489.476h-2.534a.483.483 0 0 1-.457-.476l-.003-6.984c0-1.47.239-3.633-1.564-3.633-1.824 0-1.752 2.109-1.752 3.633v6.984a.48.48 0 0 1-.49.476M63.874.625c3.766 0 5.804 3.272 5.804 7.432 0 4.019-2.252 7.208-5.804 7.208-3.698 0-5.71-3.272-5.71-7.35 0-4.101 2.037-7.29 5.71-7.29m.022 2.69c-1.87 0-1.989 2.579-1.989 4.186 0 1.61-.025 5.048 1.967 5.048 1.967 0 2.06-2.773 2.06-4.463 0-1.113-.047-2.441-.379-3.496-.285-.917-.853-1.275-1.66-1.275M74.562 14.99h-2.527a.486.486 0 0 1-.457-.476l-.004-13.181a.48.48 0 0 1 .49-.43h2.352c.22.01.403.163.453.368v2.015h.046c.71-1.802 1.706-2.661 3.459-2.661 1.139 0 2.249.415 2.963 1.553C82 3.232 82 5.005 82 6.28v8.295a.49.49 0 0 1-.489.415h-2.544a.48.48 0 0 1-.45-.415V7.418c0-1.441.164-3.55-1.589-3.55-.617 0-1.185.419-1.467 1.054-.357.806-.403 1.607-.403 2.496v7.096a.49.49 0 0 1-.496.476M40.748 8.697c0 1 .025 1.835-.474 2.723-.404.722-1.046 1.166-1.757 1.166-.974 0-1.545-.75-1.545-1.86 0-2.188 1.938-2.585 3.776-2.585zm2.56 6.258a.525.525 0 0 1-.6.062c-.842-.708-.996-1.037-1.456-1.712-1.392 1.437-2.381 1.867-4.184 1.867-2.138 0-3.797-1.332-3.797-4.001 0-2.084 1.113-3.503 2.705-4.196 1.378-.614 3.302-.722 4.772-.892V5.75c0-.61.047-1.333-.31-1.86-.307-.473-.9-.668-1.424-.668-.968 0-1.828.502-2.038 1.542-.043.23-.211.458-.443.47l-2.46-.268c-.206-.047-.438-.217-.378-.538C34.26 1.41 36.958.5 39.371.5c1.235 0 2.848.332 3.822 1.278 1.236 1.167 1.118 2.723 1.118 4.417v4c0 1.204.492 1.73.956 2.38.16.232.197.51-.01.683-.518.437-1.439 1.25-1.946 1.705zM7.478 8.697c0 1 .025 1.835-.475 2.723-.403.722-1.042 1.166-1.756 1.166-.974 0-1.542-.75-1.542-1.86 0-2.188 1.938-2.585 3.773-2.585zm2.56 6.258a.525.525 0 0 1-.6.062c-.843-.708-.993-1.037-1.457-1.712-1.392 1.437-2.377 1.867-4.183 1.867C1.663 15.172 0 13.84 0 11.171c0-2.084 1.117-3.503 2.706-4.196 1.377-.614 3.301-.722 4.772-.892V5.75c0-.61.046-1.333-.307-1.86-.31-.473-.903-.668-1.424-.668-.968 0-1.831.502-2.042 1.542-.043.23-.21.458-.439.47L.803 4.966C.596 4.92.368 4.75.425 4.429.992 1.41 3.687.5 6.1.5c1.235 0 2.848.332 3.823 1.278 1.235 1.167 1.117 2.723 1.117 4.417v4c0 1.204.493 1.73.957 2.38.164.232.2.51-.007.683a109 109 0 0 0-1.946 1.705z"/></g><defs><clipPath id="a"><path fill="#fff" d="M0 .5h82v25H0z"/></clipPath></defs></svg>
